svgs/regular/user-crown.svg

<svg xmlns="http://www.w3.org/2000/svg" viewBox="0 0 448 512"><!-- Font Awesome Pro 6.0.0-alpha2 by @fontawesome - https://fontawesome.com License - https://fontawesome.com/license (Commercial License) --><path d="M224 272C294.75 272 352 214.75 352 144V0L288 32L224 0L160 32L96 0V144C96 214.75 153.25 272 224 272ZM144 128H304V144C304 188.125 268.125 224 224 224S144 188.125 144 144V128ZM272 304H176C78.797 304 0 382.797 0 480C0 497.672 14.326 512 32 512H416C433.674 512 448 497.672 448 480C448 382.797 369.203 304 272 304ZM48.994 464C56.895 400.945 110.84 352 176 352H272C337.16 352 391.105 400.945 399.006 464H48.994Z"/></svg>

<svg xmlns="http://www.w3.org/2000/svg" viewBox="0 0 448 512"><!--! Font Awesome Pro 6.0.0-alpha3 by @fontawesome - https://fontawesome.com License - https://fontawesome.com/license (Commercial License) --><path d="M224 272c70.75 0 128-57.25 128-128V0l-64 32l-64-32L160 32L96 0v144C96 214.8 153.3 272 224 272zM144 128h160v16C304 188.1 268.1 224 224 224S144 188.1 144 144V128zM272 304h-96C78.8 304 0 382.8 0 480c0 17.67 14.33 32 32 32h384c17.67 0 32-14.33 32-32C448 382.8 369.2 304 272 304zM48.99 464C56.89 400.9 110.8 352 176 352h96c65.16 0 119.1 48.95 127 112H48.99z"/></svg>
